icons/tokens/0xdF574c24545E5FfEcb9a659c229253D4111d87e1/logo.svg

<svg width="32" height="32" viewBox="0 0 32 32" fill="none" xmlns="http://www.w3.org/2000/svg">
<path fill-rule="evenodd" clip-rule="evenodd" d="M32 16C32 7.17152 24.8285 0 16 0C7.17152 0 0 7.17152 0 16C0 24.8285 7.17152 32 16 32C24.8285 32 32 24.8285 32 16Z" fill="#1A61F0"/>
<path fill-rule="evenodd" clip-rule="evenodd" d="M19.2541 19.1766V25.3395H21.8678L21.8707 17.9994C21.8707 16.4093 20.5821 15.1197 18.9917 15.119H14.0125C13.3136 15.119 12.7459 14.4467 12.7459 13.6186V7.45409H10.1322L10.1293 14.7958C10.1293 16.3859 11.4179 17.6752 13.0083 17.6758H17.9875C18.6864 17.6758 19.2541 18.3485 19.2541 19.1766Z" fill="white"/>
<path fill-rule="evenodd" clip-rule="evenodd" d="M19.9795 7.45409L21.8678 7.47073V13.0109C19.9552 13.0109 19.2541 11.4278 19.2541 9.69889C19.2541 8.95073 19.2541 8.20257 19.2541 7.45409H19.9795Z" fill="white"/>
<path fill-rule="evenodd" clip-rule="evenodd" d="M12.0205 25.3395L10.1321 25.3232V19.783C12.0448 19.783 12.7459 21.3658 12.7459 23.0947C12.7459 23.8432 12.7459 24.5914 12.7459 25.3395H12.0205Z" fill="white"/>
</svg>

<svg width="32" height="32" fill="none" xmlns="http://www.w3.org/2000/svg"><path fill-rule="evenodd" clip-rule="evenodd" d="M32 16c0-8.828-7.172-16-16-16S0 7.172 0 16s7.172 16 16 16 16-7.172 16-16z" fill="#1A61F0"/><path fill-rule="evenodd" clip-rule="evenodd" d="M19.254 19.177v6.163h2.614L21.87 18a2.88 2.88 0 00-2.88-2.881h-4.979c-.698 0-1.266-.672-1.266-1.5V7.454h-2.614l-.003 7.342a2.88 2.88 0 002.88 2.88h4.979c.698 0 1.266.673 1.266 1.5zM19.98 7.454l1.888.017v5.54c-1.913 0-2.614-1.583-2.614-3.312V7.454h.726zM12.02 25.34l-1.888-.017v-5.54c1.913 0 2.614 1.583 2.614 3.312v2.245h-.726z" fill="#fff"/></svg>
